X: 061	% 11
T: Schotische (Name Unknown)
S: Viola Ruth "Pioneer Western Folk Tunes" 1948 p.6 #1
R: shottish
Z: 2019 John Chambers <jc:trillian.mit.edu>
M: 4/4
L: 1/8
K: G
V: 1 name=11
|:\
D2D2 B>AG>F | E2E2 c4 |\
D>EF>G A>Bc>d | e>dd>^c d4 |\
D2D2 B>AG>F | E2E2 c4 |
D>EF>G A>B (3(cBA) | G2 B2 G2 :| B>c |\
d>BG>B d>BG>D | F2(E>^D) E2(AB) |\
c>AF>A c>AF>D |
E2(D>^C) D2(B>c) |\
d>BG>B d>BG>D | F2(E>^D) E2(AB) |\
c>AF>D E2F2 | G2G2 G4 |]
